X: 110
T:D'r Vehrele
M:3/4
L:1/4
R:Valse
O:France
A:Alsace
K:F
C|FFF|FFF|EEF|G2C|G z G|G>FG|A3-|A z A|
BBB|B2G|AAA|A2F|G2G|G>FG|c3-|c z A|BBB|
B2G|AAA|A2F|G2G|EDE|F3-|F2||
W:
W:E mol het de Vehrele ins Exame muen gehn
W:Do, het de Vehrele gsat:
W:Sie werre mi yo scho wieder lo gehn,
W:So, het de Vehrele gsat.
W:Sie werre mi jo scho wieder lo gehn,
W:So, het de Vehrele gsat.
W:
W:Do han se ne gfrojt s de Geographie
W:Do, het de Vehrele gsat:
W:Nawe's Nachbars Hus isch unsers gsi
W:So, het de Vehrele gsat.
W:Nawe's Nachbars Hus isch unsers gsi
W:So, het de Vehrele gsat.
W:
W:Do han se ne gfrojt s de Mineralogie
W:Do, het de Vehrele gsat:
W:Met Steine wrft m'r d'Fanschter i,
W:So, het de Vehrele gsat.
W: Met Steine wrft m'r d'Fanschter i,
W:So, het de Vehrele gsat.
W:
W:Do han se ne gfrojt s de Astronomie
W:Do, het de Vehrele gsat:
W:Im "Starne" gitt's de beschte Wi,
W:So, het de Vehrele gsat.
W:Im "Starne" gitt's de beschte Wi,
W:So, het de Vehrele gsat.
W:
W:Do han se ne gfrojt s de Philosophie
W:Do, het de Vehrele gsat:
W:Des Danke isch mi Sach nie gsi,
W:So, het de Vehrele gsat.
W:Des Danke isch mi Sach nie gsi,
W:So, het de Vehrele gsat.
W:
W:Do han se de Vehrel z de Tr ns khejt
W:Do, het de Vehrele gsat:
W:Ich ha's Ejch jo glich prophezejt,
W:So, het de Vehrele gsat.
W: Ich ha's Ejch jo glich prophezejt,
W:So, het de Vehrele gsat.
W:
W: From "Falaleiro" http://home.t-online.de/home/pheld/homepage.htm
